;Generated with Cura_SteamEngine 15.01
; Default start code
G28 ; Home extruder
G1 Z15 F100
M107 ; Turn off fan
G90 ; Absolute positioning
M82 ; Extruder in absolute mode
M190 S50
; Activate all used extruder
M104 T0 S210
G92 E0 ; Reset extruder position
; Wait for all used extruders to reach temperature
M109 T0 S210
;Layer count: 270
;LAYER:0
M107
G0 F9000 X41.195 Y88.334 Z0.300
;TYPE:SKIRT
G1 F1800 X42.482 Y87.781 E0.08736
G1 X43.796 Y87.291 E0.17481
G1 X45.131 Y86.868 E0.26215
G1 X46.489 Y86.510 E0.34973
G1 X47.861 Y86.222 E0.43716
G1 X49.244 Y86.001 E0.52450
G1 X50.637 Y85.849 E0.61188
G1 X52.038 Y85.766 E0.69941
G1 X53.361 Y85.754 E0.78192
G1 X53.476 Y85.752 E0.78909
G1 X54.844 Y85.809 E0.87448
G1 X56.239 Y85.936 E0.96183
G1 X57.625 Y86.131 E1.04912
G1 X58.943 Y86.383 E1.13280
G1 X59.075 Y86.410 E1.14120
G1 X60.369 Y86.727 E1.22429
G1 X61.709 Y87.125 E1.31146
G1 X63.033 Y87.591 E1.39899
G1 X64.331 Y88.122 E1.48645
G1 X65.601 Y88.715 E1.57386
G1 X66.840 Y89.372 E1.66132
G1 X68.045 Y90.089 E1.74876
G1 X69.212 Y90.865 E1.83616
G1 X70.285 Y91.656 E1.91929
G1 X70.393 Y91.738 E1.92775
G1 X71.427 Y92.588 E2.01123
G1 X72.465 Y93.526 E2.09847
G1 X73.457 Y94.518 E2.18596
G1 X74.397 Y95.556 E2.27329
G1 X75.286 Y96.640 E2.36072
G1 X76.060 Y97.686 E2.44187
G1 X76.147 Y97.803 E2.45096
G1 X76.930 Y98.984 E2.53933
G1 X77.617 Y100.143 E2.62335
G1 X77.939 Y100.750 E2.66620
G1 X198.250 Y100.750 E10.16913
G1 X198.250 Y103.953 E10.36887
G1 X203.850 Y103.953 E10.71811
G1 X203.850 Y123.653 E11.94665
G1 X198.250 Y123.653 E12.29588
G1 X198.250 Y127.250 E12.52020
G1 X77.939 Y127.250 E20.02313
G1 X77.671 Y127.760 E20.05906
G1 X76.958 Y128.967 E20.14648
G1 X76.187 Y130.137 E20.23386
G1 X75.395 Y131.218 E20.31743
G1 X75.314 Y131.326 E20.32585
G1 X74.470 Y132.359 E20.40904
G1 X73.535 Y133.399 E20.49626
G1 X72.547 Y134.395 E20.58375
G1 X71.511 Y135.339 E20.67115
G1 X70.430 Y136.231 E20.75855
G1 X69.368 Y137.022 E20.84114
G1 X69.267 Y137.097 E20.84898
G1 X68.137 Y137.852 E20.93373
G1 X66.937 Y138.571 E21.02097
G1 X65.701 Y139.232 E21.10838
G1 X64.435 Y139.830 E21.19570
G1 X63.138 Y140.367 E21.28324
G1 X61.817 Y140.838 E21.37070
G1 X60.476 Y141.242 E21.45804
G1 X59.114 Y141.580 E21.54556
G1 X57.815 Y141.834 E21.62810
G1 X57.698 Y141.858 E21.63555
G1 X56.346 Y142.050 E21.72071
G1 X54.953 Y142.181 E21.80797
G1 X53.646 Y142.239 E21.88955
G1 X53.527 Y142.247 E21.89699
G1 X52.148 Y142.237 E21.98299
G1 X50.751 Y142.160 E22.07025
G1 X49.357 Y142.014 E22.15765
G1 X47.972 Y141.798 E22.24507
G1 X46.598 Y141.516 E22.33254
G1 X45.240 Y141.163 E22.42005
G1 X43.904 Y140.745 E22.50735
G1 X42.587 Y140.261 E22.59485
G1 X41.297 Y139.712 E22.68228
G1 X40.034 Y139.099 E22.76983
G1 X38.807 Y138.425 E22.85713
G1 X37.613 Y137.692 E22.94451
G1 X36.455 Y136.898 E23.03207
G1 X35.340 Y136.050 E23.11943
G1 X34.267 Y135.146 E23.20693
G1 X33.241 Y134.189 E23.29442
G1 X32.264 Y133.186 E23.38174
G1 X31.337 Y132.133 E23.46923
G1 X30.464 Y131.034 E23.55676
G1 X29.647 Y129.897 E23.64407
G1 X28.886 Y128.718 E23.73159
G1 X28.186 Y127.503 E23.81903
G1 X27.547 Y126.255 E23.90647
G1 X26.970 Y124.976 E23.99397
G1 X26.459 Y123.673 E24.08126
G1 X26.010 Y122.345 E24.16868
G1 X25.651 Y121.069 E24.25134
G1 X25.619 Y120.957 E24.25861
G1 X25.316 Y119.625 E24.34380
G1 X25.071 Y118.245 E24.43120
G1 X24.896 Y116.856 E24.51851
G1 X24.787 Y115.458 E24.60596
G1 X24.753 Y114.134 E24.68855
G1 X24.748 Y114.027 E24.69523
G1 X24.781 Y112.651 E24.78107
G1 X24.883 Y111.256 E24.86830
G1 X25.053 Y109.864 E24.95575
G1 X25.294 Y108.480 E25.04336
G1 X25.602 Y107.115 E25.13063
G1 X25.960 Y105.823 E25.21423
G1 X25.998 Y105.691 E25.22280
G1 X26.420 Y104.431 E25.30567
G1 X26.925 Y103.128 E25.39282
G1 X27.497 Y101.846 E25.48036
G1 X28.132 Y100.596 E25.56780
G1 X28.827 Y99.379 E25.65520
G1 X29.584 Y98.196 E25.74278
G1 X30.396 Y97.055 E25.83012
G1 X31.265 Y95.953 E25.91764
G1 X32.187 Y94.898 E26.00502
G1 X33.159 Y93.889 E26.09239
G1 X34.183 Y92.927 E26.18001
G1 X35.253 Y92.021 E26.26744
G1 X36.363 Y91.169 E26.35471
G1 X37.517 Y90.371 E26.44220
G1 X38.707 Y89.633 E26.52953
G1 X39.934 Y88.952 E26.61704
G1 X41.195 Y88.334 E26.70462
G1 F2400 E22.70462
G0 F9000 X42.877 Y91.965
;TYPE:WALL-INNER
G1 F2400 E26.70462
G1 F1800 X43.965 Y91.497 E26.77848
G1 X45.101 Y91.074 E26.85408
G1 X46.254 Y90.708 E26.92952
G1 X47.405 Y90.405 E27.00374
G1 X48.581 Y90.158 E27.07868
G1 X49.776 Y89.967 E27.15415
G1 X50.974 Y89.837 E27.22930
G1 X52.181 Y89.765 E27.30470
G1 X53.401 Y89.754 E27.38079
G1 X53.439 Y89.753 E27.38316
G1 X54.571 Y89.801 E27.45382
G1 X55.773 Y89.910 E27.52909
G1 X56.971 Y90.079 E27.60454
G1 X58.172 Y90.308 E27.68078
G1 X59.318 Y90.588 E27.75435
G1 X60.482 Y90.933 E27.83006
G1 X61.606 Y91.329 E27.90438
G1 X62.719 Y91.784 E27.97937
G1 X63.818 Y92.297 E28.05501
G1 X64.880 Y92.861 E28.12999
G1 X65.912 Y93.474 E28.20485
G1 X66.915 Y94.142 E28.28000
G1 X67.895 Y94.864 E28.35591
G1 X67.935 Y94.894 E28.35903
G1 X68.801 Y95.607 E28.42899
G1 X69.722 Y96.439 E28.50639
G1 X70.556 Y97.273 E28.57994
G1 X71.355 Y98.155 E28.65416
G1 X72.134 Y99.104 E28.73073
G1 X72.858 Y100.084 E28.80671
G1 X73.540 Y101.110 E28.88354
G1 X74.127 Y102.100 E28.95532
G1 X74.693 Y103.166 E29.03059
G1 X75.211 Y104.272 E29.10675
G1 X75.434 Y104.750 E29.13964
G1 X194.250 Y104.750 E36.54934
G1 X194.250 Y123.250 E37.70305
G1 X75.434 Y123.250 E45.11274
G1 X74.735 Y124.748 E45.21583
G1 X74.180 Y125.805 E45.29028
G1 X73.559 Y126.857 E45.36647
G1 X72.901 Y127.855 E45.44101
G1 X72.184 Y128.832 E45.51659
G1 X71.433 Y129.755 E45.59080
G1 X70.633 Y130.645 E45.66543
G1 X69.781 Y131.503 E45.74083
G1 X68.883 Y132.321 E45.81659
G1 X67.966 Y133.078 E45.89074
G1 X66.979 Y133.813 E45.96748
G1 X65.997 Y134.471 E46.04120
G1 X64.962 Y135.092 E46.11647
G1 X63.901 Y135.659 E46.19150
G1 X62.821 Y136.169 E46.26598
G1 X61.704 Y136.632 E46.34139
G1 X60.565 Y137.037 E46.41677
G1 X59.418 Y137.383 E46.49149
G1 X58.244 Y137.674 E46.56692
G1 X57.045 Y137.909 E46.64311
G1 X55.892 Y138.075 E46.71576
G1 X54.666 Y138.190 E46.79255
G1 X53.451 Y138.244 E46.86840
G1 X53.417 Y138.246 E46.87052
G1 X52.276 Y138.238 E46.94168
G1 X51.068 Y138.171 E47.01713
G1 X49.869 Y138.046 E47.09231
G1 X48.693 Y137.862 E47.16654
G1 X47.502 Y137.617 E47.24237
G1 X46.341 Y137.316 E47.31716
G1 X45.190 Y136.956 E47.39237
G1 X44.060 Y136.541 E47.46744
G1 X42.955 Y136.070 E47.54235
G1 X41.865 Y135.541 E47.61791
G1 X40.816 Y134.965 E47.69254
G1 X39.802 Y134.343 E47.76673
G1 X38.794 Y133.652 E47.84294
G1 X37.843 Y132.928 E47.91748
G1 X36.918 Y132.149 E47.99290
G1 X36.045 Y131.335 E48.06733
G1 X35.201 Y130.467 E48.14284
G1 X34.403 Y129.561 E48.21813
G1 X33.644 Y128.607 E48.29415
G1 X32.959 Y127.653 E48.36740
G1 X32.306 Y126.640 E48.44256
G1 X31.702 Y125.592 E48.51799
G1 X31.150 Y124.514 E48.59352
G1 X30.655 Y123.417 E48.66857
G1 X30.222 Y122.313 E48.74253
G1 X29.831 Y121.155 E48.81875
G1 X29.501 Y119.982 E48.89474
G1 X29.237 Y118.830 E48.96845
G1 X29.028 Y117.653 E49.04300
G1 X28.877 Y116.458 E49.11811
G1 X28.783 Y115.251 E49.19361
G1 X28.752 Y114.025 E49.27009
G1 X28.750 Y113.997 E49.27184
G1 X28.778 Y112.841 E49.34396
G1 X28.864 Y111.663 E49.41761
G1 X29.013 Y110.443 E49.49426
G1 X29.217 Y109.268 E49.56863
G1 X29.485 Y108.081 E49.64452
G1 X29.806 Y106.921 E49.71958
G1 X29.820 Y106.873 E49.72270
G1 X30.184 Y105.788 E49.79407
G1 X30.611 Y104.684 E49.86789
G1 X31.108 Y103.572 E49.94385
G1 X31.663 Y102.478 E50.02035
G1 X32.248 Y101.454 E50.09389
G1 X32.901 Y100.434 E50.16942
G1 X33.600 Y99.451 E50.24464
G1 X34.343 Y98.510 E50.31942
G1 X35.128 Y97.611 E50.39385
G1 X35.976 Y96.731 E50.47006
G1 X36.847 Y95.913 E50.54458
G1 X37.760 Y95.139 E50.61922
G1 X38.721 Y94.402 E50.69474
G1 X39.726 Y93.707 E50.77095
G1 X40.717 Y93.092 E50.84368
G1 X41.781 Y92.502 E50.91955
G1 X42.877 Y91.965 E50.99567
G0 F9000 X42.646 Y97.350
G1 F1800 X42.441 Y97.344 E51.00846
G1 X41.848 Y97.367 E51.04547
G1 X41.251 Y97.452 E51.08307
G1 X40.665 Y97.594 E51.12067
G1 X40.097 Y97.796 E51.15827
G1 X39.551 Y98.052 E51.19588
G1 X39.033 Y98.362 E51.23352
G1 X38.549 Y98.721 E51.27110
G1 X38.102 Y99.128 E51.30880
G1 X37.699 Y99.577 E51.34643
G1 X37.343 Y100.063 E51.38400
G1 X37.036 Y100.582 E51.42160
G1 X36.783 Y101.129 E51.45919
G1 X36.585 Y101.699 E51.49682
G1 X36.446 Y102.286 E51.53444
G1 X36.365 Y102.883 E51.57201
G1 X36.344 Y103.485 E51.60957
G1 X36.383 Y104.087 E51.64720
G1 X36.482 Y104.682 E51.68481
G1 X36.640 Y105.264 E51.72242
G1 X36.855 Y105.828 E51.76006
G1 X37.125 Y106.367 E51.79766
G1 X37.447 Y106.878 E51.83532
G1 X37.819 Y107.353 E51.87295
G1 X38.236 Y107.788 E51.91053
G1 X38.449 Y107.970 E51.92800
G1 X37.843 Y107.951 E51.96581
G1 X37.248 Y107.996 E52.00302
G1 X36.654 Y108.100 E52.04063
G1 X36.072 Y108.264 E52.07834
G1 X35.511 Y108.485 E52.11594
G1 X34.974 Y108.760 E52.15356
G1 X34.468 Y109.087 E52.19114
G1 X33.996 Y109.463 E52.22877
G1 X33.564 Y109.884 E52.26639
G1 X33.180 Y110.342 E52.30366
G1 X32.946 Y110.674 E52.32899
G1 X32.642 Y111.188 E52.36623
G1 X32.388 Y111.735 E52.40384
G1 X32.192 Y112.305 E52.44143
G1 X32.052 Y112.892 E52.47907
G1 X31.972 Y113.490 E52.51669
G1 X31.951 Y114.092 E52.55426
G1 X31.990 Y114.694 E52.59188
G1 X32.089 Y115.289 E52.62949
G1 X32.247 Y115.871 E52.66710
G1 X32.461 Y116.435 E52.70472
G1 X32.731 Y116.974 E52.74232
G1 X33.054 Y117.485 E52.78002
G1 X33.425 Y117.960 E52.81760
G1 X33.842 Y118.394 E52.85514
G1 X34.299 Y118.787 E52.89273
G1 X34.795 Y119.132 E52.93040
G1 X35.322 Y119.426 E52.96804
G1 X35.876 Y119.664 E53.00564
G1 X36.451 Y119.848 E53.04329
G1 X37.040 Y119.972 E53.08083
G1 X37.634 Y120.038 E53.11810
G1 X38.064 Y120.049 E53.14492
G1 X38.445 Y120.025 E53.16873
G1 X37.957 Y120.490 E53.21077
G1 X37.570 Y120.953 E53.24840
G1 X37.230 Y121.451 E53.28600
G1 X36.941 Y121.981 E53.32365
G1 X36.707 Y122.537 E53.36127
G1 X36.529 Y123.113 E53.39887
G1 X36.409 Y123.704 E53.43648
G1 X36.351 Y124.300 E53.47382
G1 X36.345 Y124.706 E53.49914
G1 X36.383 Y125.300 E53.53626
G1 X36.482 Y125.895 E53.57388
G1 X36.640 Y126.477 E53.61148
G1 X36.855 Y127.041 E53.64913
G1 X37.125 Y127.580 E53.68672
G1 X37.447 Y128.091 E53.72439
G1 X37.819 Y128.566 E53.76201
G1 X38.236 Y129.001 E53.79959
G1 X38.694 Y129.393 E53.83719
G1 X39.189 Y129.738 E53.87482
G1 X39.716 Y130.031 E53.91242
G1 X40.269 Y130.271 E53.95001
G1 X40.844 Y130.455 E53.98766
G1 X41.434 Y130.579 E54.02526
G1 X42.029 Y130.645 E54.06259
G1 X42.457 Y130.654 E54.08929
G1 X43.053 Y130.618 E54.12653
G1 X43.647 Y130.524 E54.16403
G1 X44.232 Y130.369 E54.20177
G1 X44.796 Y130.157 E54.23935
G1 X45.336 Y129.890 E54.27692
G1 X45.848 Y129.572 E54.31450
G1 X46.325 Y129.203 E54.35211
G1 X46.758 Y128.794 E54.38926
G1 X46.970 Y128.559 E54.40899
G1 X46.951 Y129.092 E54.44225
G1 X46.990 Y129.694 E54.47988
G1 X47.089 Y130.289 E54.51749
G1 X47.247 Y130.871 E54.55510
G1 X47.461 Y131.435 E54.59272
G1 X47.731 Y131.974 E54.63031
G1 X48.054 Y132.485 E54.66801
G1 X48.425 Y132.960 E54.70560
G1 X48.842 Y133.394 E54.74314
G1 X49.299 Y133.787 E54.78072
G1 X49.795 Y134.132 E54.81840
G1 X50.322 Y134.426 E54.85604
G1 X50.876 Y134.664 E54.89364
G1 X51.451 Y134.848 E54.93129
G1 X52.040 Y134.972 E54.96883
G1 X52.634 Y135.038 E55.00610
G1 X53.064 Y135.049 E55.03292
G1 X53.659 Y135.012 E55.07010
G1 X54.254 Y134.918 E55.10766
G1 X54.837 Y134.762 E55.14530
G1 X55.402 Y134.551 E55.18291
G1 X55.944 Y134.284 E55.22059
G1 X56.448 Y133.969 E55.25766
G1 X56.776 Y133.727 E55.28308
G1 X57.225 Y133.330 E55.32045
G1 X57.634 Y132.889 E55.35796
G1 X57.998 Y132.408 E55.39558
G1 X58.313 Y131.893 E55.43323
G1 X58.575 Y131.350 E55.47083
G1 X58.782 Y130.783 E55.50847
G1 X58.930 Y130.198 E55.54610
G1 X59.020 Y129.602 E55.58369
G1 X59.050 Y129.000 E55.62128
G1 X59.028 Y128.561 E55.64869
G1 X59.449 Y129.001 E55.68667
G1 X59.907 Y129.393 E55.72426
G1 X60.402 Y129.738 E55.76189
G1 X60.929 Y130.031 E55.79949
G1 X61.482 Y130.271 E55.83709
G1 X62.057 Y130.455 E55.87474
G1 X62.647 Y130.579 E55.91234
G1 X63.242 Y130.645 E55.94967
G1 X63.670 Y130.654 E55.97637
G1 X64.266 Y130.618 E56.01360
G1 X64.860 Y130.524 E56.05111
G1 X65.445 Y130.369 E56.08885
G1 X66.009 Y130.157 E56.12642
G1 X66.549 Y129.890 E56.16399
G1 X67.062 Y129.572 E56.20163
G1 X67.538 Y129.202 E56.23923
G1 X67.971 Y128.794 E56.27633
G1 X68.244 Y128.491 E56.30177
G1 X68.606 Y128.014 E56.33911
G1 X68.920 Y127.499 E56.37672
G1 X69.181 Y126.956 E56.41430
G1 X69.387 Y126.390 E56.45186
G1 X69.537 Y125.805 E56.48952
G1 X69.627 Y125.209 E56.52711
G1 X69.657 Y124.606 E56.56476
G1 X69.627 Y124.003 E56.60241
G1 X69.537 Y123.407 E56.64000
G1 X69.389 Y122.828 E56.67727
G1 X69.256 Y122.444 E56.70262
G1 X69.016 Y121.898 E56.73981
G1 X68.720 Y121.373 E56.77740
G1 X68.372 Y120.880 E56.81503
G1 X67.978 Y120.423 E56.85266
G1 X67.562 Y120.030 E56.88835
G1 X68.064 Y120.049 E56.91967
G1 X68.659 Y120.012 E56.95685
G1 X69.254 Y119.918 E56.99442
G1 X69.837 Y119.762 E57.03206
G1 X70.402 Y119.551 E57.06967
G1 X70.944 Y119.284 E57.10735
G1 X71.448 Y118.969 E57.14441
G1 X71.776 Y118.727 E57.16983
G1 X72.225 Y118.330 E57.20721
G1 X72.634 Y117.889 E57.24472
G1 X72.998 Y117.408 E57.28233
G1 X73.313 Y116.893 E57.31998
G1 X73.575 Y116.350 E57.35758
G1 X73.782 Y115.783 E57.39522
G1 X73.930 Y115.198 E57.43286
G1 X74.020 Y114.602 E57.47044
G1 X74.050 Y114.000 E57.50803
G1 X74.020 Y113.397 E57.54568
G1 X73.930 Y112.801 E57.58327
G1 X73.783 Y112.222 E57.62053
G1 X73.650 Y111.837 E57.64593
G1 X73.409 Y111.291 E57.68315
G1 X73.112 Y110.765 E57.72082
G1 X72.766 Y110.273 E57.75833
G1 X72.371 Y109.817 E57.79595
G1 X71.933 Y109.402 E57.83358
G1 X71.455 Y109.034 E57.87120
G1 X70.945 Y108.714 E57.90875
G1 X70.403 Y108.447 E57.94643
G1 X69.838 Y108.235 E57.98406
G1 X69.255 Y108.081 E58.02167
G1 X68.666 Y107.986 E58.05887
G1 X68.246 Y107.955 E58.08514
G1 X67.843 Y107.951 E58.11027
G1 X67.555 Y107.973 E58.12828
G1 X67.971 Y107.581 E58.16393
G1 X68.244 Y107.278 E58.18936
G1 X68.606 Y106.801 E58.22671
G1 X68.920 Y106.286 E58.26432
G1 X69.181 Y105.743 E58.30189
G1 X69.387 Y105.177 E58.33946
G1 X69.537 Y104.592 E58.37712
G1 X69.627 Y103.996 E58.41471
G1 X69.657 Y103.393 E58.45236
G1 X69.627 Y102.790 E58.49001
G1 X69.537 Y102.194 E58.52760
G1 X69.389 Y101.615 E58.56487
G1 X69.256 Y101.231 E58.59021
G1 X69.016 Y100.685 E58.62741
G1 X68.720 Y100.160 E58.66499
G1 X68.372 Y99.667 E58.70263
G1 X67.978 Y99.210 E58.74026
G1 X67.539 Y98.795 E58.77793
G1 X67.062 Y98.426 E58.81554
G1 X66.550 Y98.108 E58.85312
G1 X66.010 Y97.841 E58.89069
G1 X65.446 Y97.629 E58.92827
G1 X64.861 Y97.474 E58.96601
G1 X64.271 Y97.380 E59.00327
G1 X63.859 Y97.350 E59.02903
G1 X63.654 Y97.344 E59.04182
G1 X63.061 Y97.367 E59.07883
G1 X62.464 Y97.452 E59.11643
G1 X61.878 Y97.594 E59.15404
G1 X61.310 Y97.796 E59.19163
G1 X60.764 Y98.052 E59.22924
G1 X60.246 Y98.362 E59.26688
G1 X59.762 Y98.721 E59.30446
G1 X59.315 Y99.128 E59.34217
G1 X59.028 Y99.448 E59.36897
G1 X59.050 Y99.000 E59.39694
G1 X59.020 Y98.397 E59.43460
G1 X58.930 Y97.801 E59.47218
G1 X58.783 Y97.222 E59.50944
G1 X58.650 Y96.837 E59.53484
G1 X58.409 Y96.291 E59.57206
G1 X58.112 Y95.765 E59.60973
G1 X57.766 Y95.273 E59.64724
G1 X57.371 Y94.817 E59.68486
G1 X56.933 Y94.402 E59.72249
G1 X56.455 Y94.034 E59.76011
G1 X55.945 Y93.714 E59.79766
G1 X55.403 Y93.447 E59.83534
G1 X54.838 Y93.235 E59.87297
G1 X54.255 Y93.081 E59.91058
G1 X53.666 Y92.986 E59.94778
G1 X53.246 Y92.955 E59.97405
G1 X52.843 Y92.951 E59.99918
G1 X52.248 Y92.996 E60.03639
G1 X51.654 Y93.100 E60.07400
G1 X51.072 Y93.264 E60.11171
G1 X50.511 Y93.485 E60.14931
G1 X49.974 Y93.760 E60.18693
G1 X49.468 Y94.087 E60.22451
G1 X48.996 Y94.463 E60.26214
G1 X48.564 Y94.884 E60.29976
G1 X48.180 Y95.342 E60.33703
G1 X47.946 Y95.674 E60.36236
G1 X47.642 Y96.188 E60.39960
G1 X47.388 Y96.735 E60.43721
G1 X47.192 Y97.305 E60.47480
G1 X47.052 Y97.892 E60.51244
G1 X46.972 Y98.490 E60.55006
G1 X46.951 Y99.092 E60.58763
G1 X46.974 Y99.453 E60.61018
G1 X46.765 Y99.210 E60.63017
G1 X46.326 Y98.795 E60.66785
G1 X45.848 Y98.426 E60.70550
G1 X45.337 Y98.108 E60.74304
G1 X44.797 Y97.841 E60.78061
G1 X44.233 Y97.629 E60.81818
G1 X43.648 Y97.474 E60.85592
G1 X43.058 Y97.380 E60.89318
G1 X42.646 Y97.350 E60.91894
G1 F2400 E56.91894
